usr/share/icons/big-icons/symbolic/status/network-cellular-acquiring-symbolic.svg

<svg width="16" height="16" version="1.1" xmlns="http://www.w3.org/2000/svg">
 <path d="m12 2v5.2695a2 2 0 0 1 1 1.7305v-6h1v10h-1v-4a2 2 0 0 1-1 1.7227v3.2773h3v-12h-3zm-4 3v2a2 2 0 0 1 1 0.27148v-1.2715h1v1.2715a2 2 0 0 1 1-0.27148v-2h-3zm-1.5 5.3223a2 2 0 0 1-0.5 0.40625v2.2715h-1v-2a2 2 0 0 1-1-0.27734v3.2773h3v-3.2715a2 2 0 0 1-0.5-0.40625zm2.5 0.40625a2 2 0 0 1-1 0.27148v3h3v-3a2 2 0 0 1-1-0.27148v2.2715h-1v-2.2715zm-9 0.27148v3h3v-3h-3zm1 1h1v1h-1v-1z" fill="#363636"/>
 <g color="#363636" fill="#363636">
  <path d="m5 8a1 1 0 1 0 0 2 1 1 0 0 0 0-2zm3 0a1 1 0 1 0 0 2 1 1 0 0 0 0-2zm3 0a1 1 0 1 0 0 2 1 1 0 0 0 0-2z" fill="#363636" overflow="visible"/>
 </g>
</svg>

<svg xmlns="http://www.w3.org/2000/svg" width="16" height="16">
<path fill="#fcfcfc" d="M12 2v5.27A2 2 0 0 1 13 9V3h1v10h-1V9a2 2 0 0 1-1 1.723V14h3V2zM8 5v2a2 2 0 0 1 1 .271V6h1v1.271A2 2 0 0 1 11 7V5zm-1.5 5.322a2 2 0 0 1-.5.407V13H5v-2a2 2 0 0 1-1-.277V14h3v-3.271a2 2 0 0 1-.5-.407m2.5.407A2 2 0 0 1 8 11v3h3v-3a2 2 0 0 1-1-.271V13H9zM0 11v3h3v-3zm1 1h1v1H1z"/>
<path fill="#fcfcfc" d="M5 8a1 1 0 1 0 0 2 1 1 0 0 0 0-2m3 0a1 1 0 1 0 0 2 1 1 0 0 0 0-2m3 0a1 1 0 1 0 0 2 1 1 0 0 0 0-2" color="#fcfcfc" overflow="visible"/>
</svg>
